X:1
T:Title
%%score { ( 1 3 ) | 2 }
L:1/8
Q:1/4=92
M:4/4
K:C
V:1 treble nm="Grand Piano"
V:3 treble 
V:2 bass 
V:1
 [EG][_E^F][=EG][=FA] [EG][CE] [Ec]2 | z2 B2 z4 | [EG][_E^F][=EG][=FA] [EG][CE] [Ec]2 | %3
w: W.~A.~Post * * * * * *|||
 [DB][GB] [^FA]>[FA] G4 | FFEF [FA][EG] [EG]2 | BBAB [Fd][Ec] [Ec]2 | [Ge][Ge][Gd][Gc] [GB]A A2 | %7
w: ||||
 GG B>B [Ec]4 | [Ge]2 [Gc]2 [Ac]2 [FA]2 | [FA][EG][EG][_E^F] [=EG]>[Ec] [Ge]2 | %10
w: |||
 [^Fd]2 [FA]2 [GB]2 [Gd]2 | [^Fd][EFc][DFB][CFA] [B,G]4 | [Ge]2 [Gc]2 [Ac]2 [FA]2 | %13
w: |||
 [FA][EG][EG][_E^F] [=EG]>[Ec] [Ge]2 | d3 d c2 [FB]2 | [Ec]6 z2 |] %16
w: |||
V:2
 [C,C][C,C][C,C][C,C] [C,C][C,G,] [C,G,]2 | [G,F]>[G,DF] .[G,DF]2[K:bass] [C,G,]>[C,G,] [C,G,]2 | %2
 [C,C][C,C][C,C][C,C] [C,C][C,G,] [C,G,]2 | [D,G,][D,D] [D,C]>[D,C] [G,B,D]4 | %4
 [G,D][G,D][G,^C][G,B,D] [C,=C][C,C] [C,C]2 | %5
 [G,DF][G,DF][G,B,F][G,F][K:bass] [C,G,][C,G,] [C,G,]2 | %6
 [C,C][C,C][D,B,][E,C] [F,C][K:treble][F,CF] [F,CF]2 | [G,CE][G,CE] [G,DF]>[G,F][K:bass] [C,G,]4 | %8
 [C,C]2 [E,C]2 [F,C]2 [F,C]2 | [C,C][C,C][C,C][C,C] [C,C]>[C,C] [C,C]2 | %10
 [D,C]2 [D,D]2 [G,D]2 [G,B,]2 | [D,A,]D,D,D, G,F,E,D, | [C,C]2 [E,C]2 [F,C]2 [F,C]2 | %13
 [C,C][C,C][C,C][C,C] [C,C]>[C,G,] [C,C]2 | [F,A,F]3 [F,A,F] [G,E]2 [G,,G,]2 | [C,G,]6 z2 |] %16
V:3
 x8 | c>B z G, [Fd]>[Ec] [Ec]2 | x8 | x8 | x8 | x8 | x8 | x8 | x8 | x8 | x8 | x8 | x8 | x8 | x8 | %15
 x8 |] %16

